X:38
T:Bud's Bounce
C:Phil Rosenthal
N:TablEdited by Larry Tanner
L:1/8
Q:1/4=200
M:4/4
K:C
z8 | "F"Ac d2 cd zc/d/ | cA cc AF z2 | "Bb"FD F2 DF z2 | "F"[F2D2] [F6C6] | z[_b3d3F3] [a3c3F3]f | 
zc d2 AF z2 | "G"G3A _B=B3 | "C"cG Ad e[eG] [e2G2] | "F"Ac d2 cd z2 | fc dA cF z2 | 
"Bb"FD F2 DF z2 | "F"[F2D2] [F6C6] | "Bb"d_B dB "F"fc z2 | (3"F7"f2e2 ^d2 "D7"=d4 | 
"G7"BG F^D "C"EC EG | "F"F4 [F4A,4] | "Bb"f2 d_B FB df | "Bb7"zd fd _B/=B/F Bd | 
"F"zf z2 c2 FA | zC DF3 d2 | "Bb"[_b2d2F2] fg fd _Bc | d_B FB2d B2 | "G"BG Bd gd B2 | 
"C"cG FC zc z2 | "F"Ac d2 cd zc/d/ | cA cc AF z2 | "Bb"FD F2 DF z2 | "F"[F2D2] [F6C6] | 
"Bb"d_B dB "F"fc z2 | (3"F7"f2e2 ^d2 "D7"=d4 | "G7"BG Bd "C"cd eg | "F"f2 Ac zC DF | 


